images/50140416.svg

<?xml version="1.0" encoding="UTF-8"?>
<svg xmlns="http://www.w3.org/2000/svg" xmlns:xlink="http://www.w3.org/1999/xlink" width="300pt" height="300pt" viewBox="0 0 300 300" version="1.1">
<defs>
<g>
<symbol overflow="visible" id="glyph0-0">
<path style="stroke:none;" d="M 0.453125 1.59375 L 0.453125 -6.34375 L 4.953125 -6.34375 L 4.953125 1.59375 Z M 0.953125 1.09375 L 4.453125 1.09375 L 4.453125 -5.84375 L 0.953125 -5.84375 Z M 0.953125 1.09375 "/>
</symbol>
<symbol overflow="visible" id="glyph0-1">
<path style="stroke:none;" d="M 0.890625 -6.5625 L 2.078125 -6.5625 L 4.984375 -1.078125 L 4.984375 -6.5625 L 5.84375 -6.5625 L 5.84375 0 L 4.65625 0 L 1.75 -5.484375 L 1.75 0 L 0.890625 0 Z M 0.890625 -6.5625 "/>
</symbol>
<symbol overflow="visible" id="glyph0-2">
<path style="stroke:none;" d="M 3.546875 -5.953125 C 2.898438 -5.953125 2.382812 -5.710938 2 -5.234375 C 1.625 -4.753906 1.4375 -4.101562 1.4375 -3.28125 C 1.4375 -2.445312 1.625 -1.789062 2 -1.3125 C 2.382812 -0.832031 2.898438 -0.59375 3.546875 -0.59375 C 4.191406 -0.59375 4.703125 -0.832031 5.078125 -1.3125 C 5.453125 -1.789062 5.640625 -2.445312 5.640625 -3.28125 C 5.640625 -4.101562 5.453125 -4.753906 5.078125 -5.234375 C 4.703125 -5.710938 4.191406 -5.953125 3.546875 -5.953125 Z M 3.546875 -6.6875 C 4.460938 -6.6875 5.195312 -6.375 5.75 -5.75 C 6.300781 -5.132812 6.578125 -4.3125 6.578125 -3.28125 C 6.578125 -2.238281 6.300781 -1.410156 5.75 -0.796875 C 5.195312 -0.179688 4.460938 0.125 3.546875 0.125 C 2.617188 0.125 1.878906 -0.179688 1.328125 -0.796875 C 0.773438 -1.410156 0.5 -2.238281 0.5 -3.28125 C 0.5 -4.3125 0.773438 -5.132812 1.328125 -5.75 C 1.878906 -6.375 2.617188 -6.6875 3.546875 -6.6875 Z M 3.546875 -6.6875 "/>
</symbol>
<symbol overflow="visible" id="glyph0-3">
<path style="stroke:none;" d="M 0.890625 -6.5625 L 1.765625 -6.5625 L 1.765625 -3.875 L 5 -3.875 L 5 -6.5625 L 5.890625 -6.5625 L 5.890625 0 L 5 0 L 5 -3.125 L 1.765625 -3.125 L 1.765625 0 L 0.890625 0 Z M 0.890625 -6.5625 "/>
</symbol>
<symbol overflow="visible" id="glyph0-4">
<path style="stroke:none;" d="M 0.890625 -6.5625 L 4.65625 -6.5625 L 4.65625 -5.8125 L 1.765625 -5.8125 L 1.765625 -3.875 L 4.375 -3.875 L 4.375 -3.140625 L 1.765625 -3.140625 L 1.765625 0 L 0.890625 0 Z M 0.890625 -6.5625 "/>
</symbol>
</g>
</defs>
<g id="surface2601">
<rect x="0" y="0" width="300" height="300" style="fill:rgb(100%,100%,100%);fill-opacity:1;stroke:none;"/>
<path style="fill:none;stroke-width:1.2;stroke-linecap:butt;stroke-linejoin:miter;stroke:rgb(0%,0%,100%);stroke-opacity:1;stroke-miterlimit:10;" d="M 79.371094 125.074219 L 62.34375 108.507812 "/>
<path style="fill:none;stroke-width:1.2;stroke-linecap:butt;stroke-linejoin:miter;stroke:rgb(0%,0%,100%);stroke-opacity:1;stroke-miterlimit:10;" d="M 79.371094 125.074219 L 77.675781 136.832031 "/>
<path style="fill:none;stroke-width:1.2;stroke-linecap:butt;stroke-linejoin:miter;stroke:rgb(0%,0%,0%);stroke-opacity:1;stroke-miterlimit:10;" d="M 77.675781 136.832031 L 75.976562 148.585938 "/>
<path style="fill:none;stroke-width:1.2;stroke-linecap:butt;stroke-linejoin:miter;stroke:rgb(0%,0%,0%);stroke-opacity:1;stroke-miterlimit:10;" d="M 100.390625 114 L 89.878906 119.535156 "/>
<path style="fill:none;stroke-width:1.2;stroke-linecap:butt;stroke-linejoin:miter;stroke:rgb(0%,0%,100%);stroke-opacity:1;stroke-miterlimit:10;" d="M 89.878906 119.535156 L 79.371094 125.074219 "/>
<path style=" stroke:none;fill-rule:nonzero;fill:rgb(100%,100%,100%);fill-opacity:1;" d="M 76.371094 119.574219 L 83.371094 119.574219 L 83.371094 130.574219 L 76.371094 130.574219 Z M 76.371094 119.574219 "/>
<g style="fill:rgb(0%,0%,100%);fill-opacity:1;">
  <use xlink:href="#glyph0-1" x="76.371094" y="128.237305"/>
</g>
<path style="fill:none;stroke-width:1.2;stroke-linecap:butt;stroke-linejoin:miter;stroke:rgb(0%,0%,100%);stroke-opacity:1;stroke-miterlimit:10;" d="M 62.34375 108.507812 L 67.589844 97.851562 "/>
<path style="fill:none;stroke-width:1.2;stroke-linecap:butt;stroke-linejoin:miter;stroke:rgb(0%,0%,0%);stroke-opacity:1;stroke-miterlimit:10;" d="M 67.589844 97.851562 L 72.835938 87.191406 "/>
<path style="fill:none;stroke-width:1.2;stroke-linecap:butt;stroke-linejoin:miter;stroke:rgb(0%,0%,100%);stroke-opacity:1;stroke-miterlimit:10;" d="M 68.40625 108.84375 L 72.605469 100.320312 "/>
<path style="fill:none;stroke-width:1.2;stroke-linecap:butt;stroke-linejoin:miter;stroke:rgb(0%,0%,0%);stroke-opacity:1;stroke-miterlimit:10;" d="M 72.605469 100.320312 L 76.804688 91.792969 "/>
<path style=" stroke:none;fill-rule:nonzero;fill:rgb(100%,100%,100%);fill-opacity:1;" d="M 59.34375 103.007812 L 66.34375 103.007812 L 66.34375 114.007812 L 59.34375 114.007812 Z M 59.34375 103.007812 "/>
<g style="fill:rgb(0%,0%,100%);fill-opacity:1;">
  <use xlink:href="#glyph0-1" x="59.34375" y="111.670898"/>
</g>
<path style="fill:none;stroke-width:1.2;stroke-linecap:butt;stroke-linejoin:miter;stroke:rgb(0%,0%,0%);stroke-opacity:1;stroke-miterlimit:10;" d="M 72.835938 87.191406 L 61.761719 66.175781 "/>
<path style="fill:none;stroke-width:1.2;stroke-linecap:butt;stroke-linejoin:miter;stroke:rgb(0%,0%,0%);stroke-opacity:1;stroke-miterlimit:10;" d="M 72.835938 87.191406 L 96.351562 90.585938 "/>
<path style="fill:none;stroke-width:1.2;stroke-linecap:butt;stroke-linejoin:miter;stroke:rgb(0%,0%,0%);stroke-opacity:1;stroke-miterlimit:10;" d="M 96.351562 90.585938 L 100.390625 114 "/>
<path style="fill:none;stroke-width:1.2;stroke-linecap:butt;stroke-linejoin:miter;stroke:rgb(0%,0%,0%);stroke-opacity:1;stroke-miterlimit:10;" d="M 91.246094 93.878906 L 94.476562 112.609375 "/>
<path style="fill:none;stroke-width:1.2;stroke-linecap:butt;stroke-linejoin:miter;stroke:rgb(0%,0%,0%);stroke-opacity:1;stroke-miterlimit:10;" d="M 100.390625 114 L 121.703125 124.492188 "/>
<path style="fill:none;stroke-width:1.2;stroke-linecap:butt;stroke-linejoin:miter;stroke:rgb(0%,0%,0%);stroke-opacity:1;stroke-miterlimit:10;" d="M 118.914062 124.675781 L 119.699219 136.53125 "/>
<path style="fill:none;stroke-width:1.2;stroke-linecap:butt;stroke-linejoin:miter;stroke:rgb(100%,0%,0%);stroke-opacity:1;stroke-miterlimit:10;" d="M 119.699219 136.53125 L 120.484375 148.382812 "/>
<path style="fill:none;stroke-width:1.2;stroke-linecap:butt;stroke-linejoin:miter;stroke:rgb(0%,0%,0%);stroke-opacity:1;stroke-miterlimit:10;" d="M 124.492188 124.308594 L 125.277344 136.160156 "/>
<path style="fill:none;stroke-width:1.2;stroke-linecap:butt;stroke-linejoin:miter;stroke:rgb(100%,0%,0%);stroke-opacity:1;stroke-miterlimit:10;" d="M 125.277344 136.160156 L 126.0625 148.015625 "/>
<path style="fill:none;stroke-width:1.2;stroke-linecap:butt;stroke-linejoin:miter;stroke:rgb(0%,0%,0%);stroke-opacity:1;stroke-miterlimit:10;" d="M 121.703125 124.492188 L 131.574219 117.886719 "/>
<path style="fill:none;stroke-width:1.2;stroke-linecap:butt;stroke-linejoin:miter;stroke:rgb(0%,0%,100%);stroke-opacity:1;stroke-miterlimit:10;" d="M 131.574219 117.886719 L 141.449219 111.28125 "/>
<path style=" stroke:none;fill-rule:nonzero;fill:rgb(100%,100%,100%);fill-opacity:1;" d="M 119.273438 142.699219 L 127.273438 142.699219 L 127.273438 153.699219 L 119.273438 153.699219 Z M 119.273438 142.699219 "/>
<g style="fill:rgb(100%,0%,0%);fill-opacity:1;">
  <use xlink:href="#glyph0-2" x="119.273438" y="151.362305"/>
</g>
<path style="fill:none;stroke-width:1.2;stroke-linecap:butt;stroke-linejoin:miter;stroke:rgb(0%,0%,100%);stroke-opacity:1;stroke-miterlimit:10;" d="M 141.449219 111.28125 L 152.105469 116.527344 "/>
<path style="fill:none;stroke-width:1.2;stroke-linecap:butt;stroke-linejoin:miter;stroke:rgb(0%,0%,0%);stroke-opacity:1;stroke-miterlimit:10;" d="M 152.105469 116.527344 L 162.761719 121.777344 "/>
<path style=" stroke:none;fill-rule:nonzero;fill:rgb(100%,100%,100%);fill-opacity:1;" d="M 134.449219 105.78125 L 148.449219 105.78125 L 148.449219 116.78125 L 134.449219 116.78125 Z M 134.449219 105.78125 "/>
<g style="fill:rgb(0%,0%,100%);fill-opacity:1;">
  <use xlink:href="#glyph0-1" x="134.449219" y="114.444336"/>
  <use xlink:href="#glyph0-3" x="141.426758" y="114.444336"/>
</g>
<path style="fill:none;stroke-width:1.2;stroke-linecap:butt;stroke-linejoin:miter;stroke:rgb(0%,0%,0%);stroke-opacity:1;stroke-miterlimit:10;" d="M 162.761719 121.777344 L 164.332031 145.480469 "/>
<path style="fill:none;stroke-width:1.2;stroke-linecap:butt;stroke-linejoin:miter;stroke:rgb(0%,0%,0%);stroke-opacity:1;stroke-miterlimit:10;" d="M 168.496094 123.777344 L 169.75 142.742188 "/>
<path style="fill:none;stroke-width:1.2;stroke-linecap:butt;stroke-linejoin:miter;stroke:rgb(0%,0%,0%);stroke-opacity:1;stroke-miterlimit:10;" d="M 162.761719 121.777344 L 182.507812 108.566406 "/>
<path style="fill:none;stroke-width:1.2;stroke-linecap:butt;stroke-linejoin:miter;stroke:rgb(0%,0%,0%);stroke-opacity:1;stroke-miterlimit:10;" d="M 164.332031 145.480469 L 185.644531 155.976562 "/>
<path style="fill:none;stroke-width:1.2;stroke-linecap:butt;stroke-linejoin:miter;stroke:rgb(0%,0%,0%);stroke-opacity:1;stroke-miterlimit:10;" d="M 185.644531 155.976562 L 205.390625 142.765625 "/>
<path style="fill:none;stroke-width:1.2;stroke-linecap:butt;stroke-linejoin:miter;stroke:rgb(0%,0%,0%);stroke-opacity:1;stroke-miterlimit:10;" d="M 184.511719 150.007812 L 200.308594 139.441406 "/>
<path style="fill:none;stroke-width:1.2;stroke-linecap:butt;stroke-linejoin:miter;stroke:rgb(0%,0%,0%);stroke-opacity:1;stroke-miterlimit:10;" d="M 205.390625 142.765625 L 226.703125 153.257812 "/>
<path style="fill:none;stroke-width:1.2;stroke-linecap:butt;stroke-linejoin:miter;stroke:rgb(0%,0%,0%);stroke-opacity:1;stroke-miterlimit:10;" d="M 203.820312 119.058594 L 205.390625 142.765625 "/>
<path style="fill:none;stroke-width:1.2;stroke-linecap:butt;stroke-linejoin:miter;stroke:rgb(0%,0%,0%);stroke-opacity:1;stroke-miterlimit:10;" d="M 226.703125 153.257812 L 237.214844 147.722656 "/>
<path style="fill:none;stroke-width:1.2;stroke-linecap:butt;stroke-linejoin:miter;stroke:rgb(0%,0%,100%);stroke-opacity:1;stroke-miterlimit:10;" d="M 237.214844 147.722656 L 247.722656 142.183594 "/>
<path style="fill:none;stroke-width:1.2;stroke-linecap:butt;stroke-linejoin:miter;stroke:rgb(0%,0%,0%);stroke-opacity:1;stroke-miterlimit:10;" d="M 231.410156 157.097656 L 239.820312 152.667969 "/>
<path style="fill:none;stroke-width:1.2;stroke-linecap:butt;stroke-linejoin:miter;stroke:rgb(0%,0%,100%);stroke-opacity:1;stroke-miterlimit:10;" d="M 239.820312 152.667969 L 248.226562 148.238281 "/>
<path style="fill:none;stroke-width:1.2;stroke-linecap:butt;stroke-linejoin:miter;stroke:rgb(0%,0%,100%);stroke-opacity:1;stroke-miterlimit:10;" d="M 230.742188 176.671875 L 228.722656 164.964844 "/>
<path style="fill:none;stroke-width:1.2;stroke-linecap:butt;stroke-linejoin:miter;stroke:rgb(0%,0%,0%);stroke-opacity:1;stroke-miterlimit:10;" d="M 228.722656 164.964844 L 226.703125 153.257812 "/>
<path style="fill:none;stroke-width:1.2;stroke-linecap:butt;stroke-linejoin:miter;stroke:rgb(0%,0%,100%);stroke-opacity:1;stroke-miterlimit:10;" d="M 247.722656 142.183594 L 256.234375 150.46875 "/>
<path style="fill:none;stroke-width:1.2;stroke-linecap:butt;stroke-linejoin:miter;stroke:rgb(0%,0%,0%);stroke-opacity:1;stroke-miterlimit:10;" d="M 256.234375 150.46875 L 264.75 158.75 "/>
<path style=" stroke:none;fill-rule:nonzero;fill:rgb(100%,100%,100%);fill-opacity:1;" d="M 244.722656 136.683594 L 251.722656 136.683594 L 251.722656 147.683594 L 244.722656 147.683594 Z M 244.722656 136.683594 "/>
<g style="fill:rgb(0%,0%,100%);fill-opacity:1;">
  <use xlink:href="#glyph0-1" x="244.722656" y="145.34668"/>
</g>
<path style="fill:none;stroke-width:1.2;stroke-linecap:butt;stroke-linejoin:miter;stroke:rgb(0%,0%,0%);stroke-opacity:1;stroke-miterlimit:10;" d="M 264.75 158.75 L 254.253906 180.0625 "/>
<path style="fill:none;stroke-width:1.2;stroke-linecap:butt;stroke-linejoin:miter;stroke:rgb(0%,0%,0%);stroke-opacity:1;stroke-miterlimit:10;" d="M 254.253906 180.0625 L 242.5 178.367188 "/>
<path style="fill:none;stroke-width:1.2;stroke-linecap:butt;stroke-linejoin:miter;stroke:rgb(0%,0%,100%);stroke-opacity:1;stroke-miterlimit:10;" d="M 242.5 178.367188 L 230.742188 176.671875 "/>
<path style="fill:none;stroke-width:1.2;stroke-linecap:butt;stroke-linejoin:miter;stroke:rgb(0%,0%,100%);stroke-opacity:1;stroke-miterlimit:10;" d="M 230.742188 176.671875 L 222.457031 185.183594 "/>
<path style="fill:none;stroke-width:1.2;stroke-linecap:butt;stroke-linejoin:miter;stroke:rgb(0%,0%,0%);stroke-opacity:1;stroke-miterlimit:10;" d="M 222.457031 185.183594 L 214.175781 193.699219 "/>
<path style=" stroke:none;fill-rule:nonzero;fill:rgb(100%,100%,100%);fill-opacity:1;" d="M 227.742188 171.171875 L 234.742188 171.171875 L 234.742188 182.171875 L 227.742188 182.171875 Z M 227.742188 171.171875 "/>
<g style="fill:rgb(0%,0%,100%);fill-opacity:1;">
  <use xlink:href="#glyph0-1" x="227.742188" y="179.834961"/>
</g>
<path style="fill:none;stroke-width:1.2;stroke-linecap:butt;stroke-linejoin:miter;stroke:rgb(0%,0%,0%);stroke-opacity:1;stroke-miterlimit:10;" d="M 182.507812 108.566406 L 181.722656 96.710938 "/>
<path style="fill:none;stroke-width:1.2;stroke-linecap:butt;stroke-linejoin:miter;stroke:rgb(20%,80%,80%);stroke-opacity:1;stroke-miterlimit:10;" d="M 181.722656 96.710938 L 180.9375 84.859375 "/>
<path style="fill:none;stroke-width:1.2;stroke-linecap:butt;stroke-linejoin:miter;stroke:rgb(0%,0%,0%);stroke-opacity:1;stroke-miterlimit:10;" d="M 182.507812 108.566406 L 203.820312 119.058594 "/>
<path style="fill:none;stroke-width:1.2;stroke-linecap:butt;stroke-linejoin:miter;stroke:rgb(0%,0%,0%);stroke-opacity:1;stroke-miterlimit:10;" d="M 182.167969 114.628906 L 199.222656 123.023438 "/>
<path style=" stroke:none;fill-rule:nonzero;fill:rgb(100%,100%,100%);fill-opacity:1;" d="M 177.9375 79.359375 L 183.9375 79.359375 L 183.9375 90.359375 L 177.9375 90.359375 Z M 177.9375 79.359375 "/>
<g style="fill:rgb(20%,80%,80%);fill-opacity:1;">
  <use xlink:href="#glyph0-4" x="177.9375" y="88.022461"/>
</g>
<path style="fill:none;stroke-width:1.2;stroke-linecap:butt;stroke-linejoin:miter;stroke:rgb(0%,0%,0%);stroke-opacity:1;stroke-miterlimit:10;" d="M 75.976562 148.585938 L 94.644531 163.285156 "/>
<path style="fill:none;stroke-width:1.2;stroke-linecap:butt;stroke-linejoin:miter;stroke:rgb(0%,0%,0%);stroke-opacity:1;stroke-miterlimit:10;" d="M 74.386719 154.449219 L 89.320312 166.207031 "/>
<path style="fill:none;stroke-width:1.2;stroke-linecap:butt;stroke-linejoin:miter;stroke:rgb(0%,0%,0%);stroke-opacity:1;stroke-miterlimit:10;" d="M 53.917969 157.40625 L 75.976562 148.585938 "/>
<path style="fill:none;stroke-width:1.2;stroke-linecap:butt;stroke-linejoin:miter;stroke:rgb(0%,0%,0%);stroke-opacity:1;stroke-miterlimit:10;" d="M 94.644531 163.285156 L 91.25 186.796875 "/>
<path style="fill:none;stroke-width:1.2;stroke-linecap:butt;stroke-linejoin:miter;stroke:rgb(0%,0%,0%);stroke-opacity:1;stroke-miterlimit:10;" d="M 91.25 186.796875 L 69.1875 195.613281 "/>
<path style="fill:none;stroke-width:1.2;stroke-linecap:butt;stroke-linejoin:miter;stroke:rgb(0%,0%,0%);stroke-opacity:1;stroke-miterlimit:10;" d="M 91.117188 192.871094 L 73.46875 199.925781 "/>
<path style="fill:none;stroke-width:1.2;stroke-linecap:butt;stroke-linejoin:miter;stroke:rgb(0%,0%,0%);stroke-opacity:1;stroke-miterlimit:10;" d="M 109.914062 201.492188 L 91.25 186.796875 "/>
<path style="fill:none;stroke-width:1.2;stroke-linecap:butt;stroke-linejoin:miter;stroke:rgb(0%,0%,0%);stroke-opacity:1;stroke-miterlimit:10;" d="M 69.1875 195.613281 L 65.792969 219.128906 "/>
<path style="fill:none;stroke-width:1.2;stroke-linecap:butt;stroke-linejoin:miter;stroke:rgb(0%,0%,0%);stroke-opacity:1;stroke-miterlimit:10;" d="M 69.1875 195.613281 L 50.523438 180.917969 "/>
<path style="fill:none;stroke-width:1.2;stroke-linecap:butt;stroke-linejoin:miter;stroke:rgb(0%,0%,0%);stroke-opacity:1;stroke-miterlimit:10;" d="M 65.792969 219.128906 L 84.460938 233.824219 "/>
<path style="fill:none;stroke-width:1.2;stroke-linecap:butt;stroke-linejoin:miter;stroke:rgb(0%,0%,0%);stroke-opacity:1;stroke-miterlimit:10;" d="M 71.117188 216.207031 L 86.050781 227.964844 "/>
<path style="fill:none;stroke-width:1.2;stroke-linecap:butt;stroke-linejoin:miter;stroke:rgb(0%,0%,0%);stroke-opacity:1;stroke-miterlimit:10;" d="M 84.460938 233.824219 L 106.519531 225.007812 "/>
<path style="fill:none;stroke-width:1.2;stroke-linecap:butt;stroke-linejoin:miter;stroke:rgb(0%,0%,0%);stroke-opacity:1;stroke-miterlimit:10;" d="M 106.519531 225.007812 L 109.914062 201.492188 "/>
<path style="fill:none;stroke-width:1.2;stroke-linecap:butt;stroke-linejoin:miter;stroke:rgb(0%,0%,0%);stroke-opacity:1;stroke-miterlimit:10;" d="M 101.328125 221.859375 L 104.042969 203.046875 "/>
<path style="fill:none;stroke-width:1.2;stroke-linecap:butt;stroke-linejoin:miter;stroke:rgb(0%,0%,0%);stroke-opacity:1;stroke-miterlimit:10;" d="M 50.523438 180.917969 L 53.917969 157.40625 "/>
<path style="fill:none;stroke-width:1.2;stroke-linecap:butt;stroke-linejoin:miter;stroke:rgb(0%,0%,0%);stroke-opacity:1;stroke-miterlimit:10;" d="M 56.394531 179.367188 L 59.109375 160.554688 "/>
<path style="fill:none;stroke-width:1.2;stroke-linecap:butt;stroke-linejoin:miter;stroke:rgb(0%,0%,0%);stroke-opacity:1;stroke-miterlimit:10;" d="M 53.917969 157.40625 L 44.582031 150.058594 "/>
<path style="fill:none;stroke-width:1.2;stroke-linecap:butt;stroke-linejoin:miter;stroke:rgb(20%,80%,80%);stroke-opacity:1;stroke-miterlimit:10;" d="M 44.582031 150.058594 L 35.25 142.707031 "/>
<path style=" stroke:none;fill-rule:nonzero;fill:rgb(100%,100%,100%);fill-opacity:1;" d="M 29.25 137.207031 L 35.25 137.207031 L 35.25 148.207031 L 29.25 148.207031 Z M 29.25 137.207031 "/>
<g style="fill:rgb(20%,80%,80%);fill-opacity:1;">
  <use xlink:href="#glyph0-4" x="29.25" y="145.870117"/>
</g>
</g>
</svg>

<svg xmlns="http://www.w3.org/2000/svg" xmlns:xlink="http://www.w3.org/1999/xlink" width="300pt" height="300pt" viewBox="0 0 300 300"><defs><symbol overflow="visible"><path d="M.453 1.594v-7.938h4.5v7.938zm.5-.5h3.5v-6.938h-3.5zm0 0"/></symbol><symbol overflow="visible" id="a"><path d="M.89-6.563H2.08l2.906 5.485v-5.484h.86V0H4.656L1.75-5.484V0H.89zm0 0"/></symbol><symbol overflow="visible" id="b"><path d="M3.547-5.953c-.65 0-1.164.242-1.547.72-.375.48-.563 1.13-.563 1.952 0 .835.188 1.49.563 1.967.383.48.898.72 1.547.72.644 0 1.156-.24 1.53-.72.376-.476.564-1.132.564-1.968 0-.822-.187-1.474-.562-1.954-.375-.477-.887-.72-1.53-.72zm0-.734c.914 0 1.648.312 2.203.937.55.617.828 1.438.828 2.47 0 1.042-.277 1.87-.828 2.483-.555.617-1.29.922-2.203.922-.93 0-1.668-.305-2.22-.922C.774-1.41.5-2.237.5-3.28c0-1.033.273-1.853.828-2.47.55-.625 1.29-.938 2.22-.938zm0 0"/></symbol><symbol overflow="visible" id="c"><path d="M.89-6.563h.876v2.688H5v-2.688h.89V0H5v-3.125H1.766V0H.89zm0 0"/></symbol><symbol overflow="visible" id="d"><path d="M.89-6.563h3.766v.75h-2.89v1.938h2.61v.734h-2.61V0H.89zm0 0"/></symbol></defs><g><path fill="#fff" d="M0 0h300v300H0z"/><path d="M79.37 125.074l-17.026-16.566M79.37 125.074l-1.694 11.758" stroke-width="1.2" stroke="#00f" stroke-miterlimit="10" fill="none"/><path d="M77.676 136.832l-1.7 11.754M100.39 114l-10.51 5.535" stroke-width="1.2" stroke="#000" stroke-miterlimit="10" fill="none"/><path d="M89.88 119.535l-10.51 5.54" stroke-width="1.2" stroke="#00f" stroke-miterlimit="10" fill="none"/><path d="M76.37 119.574h7v11h-7zm0 0" fill="#fff"/><use xlink:href="#a" x="76.371" y="128.237" fill="#00f"/><path d="M62.344 108.508l5.246-10.656" stroke-width="1.2" stroke="#00f" stroke-miterlimit="10" fill="none"/><path d="M67.59 97.852l5.246-10.66" stroke-width="1.2" stroke="#000" stroke-miterlimit="10" fill="none"/><path d="M68.406 108.844l4.2-8.524" stroke-width="1.2" stroke="#00f" stroke-miterlimit="10" fill="none"/><path d="M72.605 100.32l4.2-8.527" stroke-width="1.2" stroke="#000" stroke-miterlimit="10" fill="none"/><path d="M59.344 103.008h7v11h-7zm0 0" fill="#fff"/><use xlink:href="#a" x="59.344" y="111.671" fill="#00f"/><path d="M72.836 87.19L61.762 66.177M72.836 87.19l23.516 3.396M96.352 90.586l4.04 23.414M91.246 93.88l3.23 18.73M100.39 114l21.313 10.492M118.914 124.676l.785 11.855" stroke-width="1.2" stroke="#000" stroke-miterlimit="10" fill="none"/><path d="M119.7 136.53l.784 11.853" stroke-width="1.2" stroke="#f00" stroke-miterlimit="10" fill="none"/><path d="M124.492 124.31l.785 11.85" stroke-width="1.2" stroke="#000" stroke-miterlimit="10" fill="none"/><path d="M125.277 136.16l.785 11.856" stroke-width="1.2" stroke="#f00" stroke-miterlimit="10" fill="none"/><path d="M121.703 124.492l9.87-6.605" stroke-width="1.2" stroke="#000" stroke-miterlimit="10" fill="none"/><path d="M131.574 117.887l9.875-6.606" stroke-width="1.2" stroke="#00f" stroke-miterlimit="10" fill="none"/><path d="M119.273 142.7h8v11h-8zm0 0" fill="#fff"/><use xlink:href="#b" x="119.273" y="151.362" fill="#f00"/><path d="M141.45 111.28l10.655 5.247" stroke-width="1.2" stroke="#00f" stroke-miterlimit="10" fill="none"/><path d="M152.105 116.527l10.657 5.25" stroke-width="1.2" stroke="#000" stroke-miterlimit="10" fill="none"/><path d="M134.45 105.78h14v11h-14zm0 0" fill="#fff"/><g fill="#00f"><use xlink:href="#a" x="134.449" y="114.444"/><use xlink:href="#c" x="141.427" y="114.444"/></g><path d="M162.762 121.777l1.57 23.703M168.496 123.777l1.254 18.965M162.762 121.777l19.746-13.21M164.332 145.48l21.313 10.497M185.645 155.977l19.746-13.21M184.512 150.008l15.797-10.567M205.39 142.766l21.313 10.492M203.82 119.06l1.57 23.706M226.703 153.258l10.512-5.535" stroke-width="1.2" stroke="#000" stroke-miterlimit="10" fill="none"/><path d="M237.215 147.723l10.508-5.54" stroke-width="1.2" stroke="#00f" stroke-miterlimit="10" fill="none"/><path d="M231.41 157.098l8.41-4.43" stroke-width="1.2" stroke="#000" stroke-miterlimit="10" fill="none"/><path d="M239.82 152.668l8.407-4.43M230.742 176.672l-2.02-11.707" stroke-width="1.2" stroke="#00f" stroke-miterlimit="10" fill="none"/><path d="M228.723 164.965l-2.02-11.707" stroke-width="1.2" stroke="#000" stroke-miterlimit="10" fill="none"/><path d="M247.723 142.184l8.51 8.285" stroke-width="1.2" stroke="#00f" stroke-miterlimit="10" fill="none"/><path d="M256.234 150.47l8.516 8.28" stroke-width="1.2" stroke="#000" stroke-miterlimit="10" fill="none"/><path d="M244.723 136.684h7v11h-7zm0 0" fill="#fff"/><use xlink:href="#a" x="244.723" y="145.347" fill="#00f"/><path d="M264.75 158.75l-10.496 21.313M254.254 180.063l-11.754-1.696" stroke-width="1.2" stroke="#000" stroke-miterlimit="10" fill="none"/><path d="M242.5 178.367l-11.758-1.695M230.742 176.672l-8.285 8.512" stroke-width="1.2" stroke="#00f" stroke-miterlimit="10" fill="none"/><path d="M222.457 185.184l-8.28 8.515" stroke-width="1.2" stroke="#000" stroke-miterlimit="10" fill="none"/><path d="M227.742 171.172h7v11h-7zm0 0" fill="#fff"/><use xlink:href="#a" x="227.742" y="179.835" fill="#00f"/><path d="M182.508 108.566l-.785-11.855" stroke-width="1.2" stroke="#000" stroke-miterlimit="10" fill="none"/><path d="M181.723 96.71l-.786-11.85" stroke-width="1.2" stroke="#3cc" stroke-miterlimit="10" fill="none"/><path d="M182.508 108.566l21.312 10.493M182.168 114.63l17.055 8.393" stroke-width="1.2" stroke="#000" stroke-miterlimit="10" fill="none"/><path d="M177.938 79.36h6v11h-6zm0 0" fill="#fff"/><use xlink:href="#d" x="177.938" y="88.022" fill="#3cc"/><path d="M75.977 148.586l18.668 14.7M74.387 154.45l14.933 11.757M53.918 157.406l22.06-8.82M94.645 163.285l-3.395 23.512M91.25 186.797l-22.063 8.816M91.117 192.87l-17.648 7.056M109.914 201.492L91.25 186.797M69.188 195.613l-3.395 23.516M69.188 195.613l-18.665-14.695M65.793 219.13l18.668 14.694M71.117 216.207l14.934 11.758M84.46 233.824l22.06-8.816M106.52 225.008l3.394-23.516M101.328 221.86l2.715-18.813M50.523 180.918l3.395-23.512M56.395 179.367l2.714-18.812M53.918 157.406l-9.336-7.347" stroke-width="1.2" stroke="#000" stroke-miterlimit="10" fill="none"/><path d="M44.582 150.06l-9.332-7.353" stroke-width="1.2" stroke="#3cc" stroke-miterlimit="10" fill="none"/><path d="M29.25 137.207h6v11h-6zm0 0" fill="#fff"/><use xlink:href="#d" x="29.25" y="145.87" fill="#3cc"/></g></svg>
